X: 41484
T: Tyreragh
R: jig
M: 6/8
K: Dmajor
{D}(.d2.d) .B(cd)|.A(BF) .E(FE)|(.D2.F) .E(FE)|(.D2.D .D2)z:|
|:.D(FA) ([A2] .f)|(.e2.e .e)(cA)|.d(ef) .e(fd)|(.B2.B) {d}.B(AF)|
(.d2.d .B)(cd)|.A(BF) .E(FE)|(.D2.F) .E(FE)|(.D3 .D2)z:|

